website/client/static/tooltip/spinContainer.svg

<svg width="68" height="56" viewBox="0 0 68 56" fill="none" xmlns="http://www.w3.org/2000/svg">
<path fill-rule="evenodd" clip-rule="evenodd" d="M62 2H6C3.79086 2 2 3.79086 2 6V50C2 52.2091 3.79086 54 6 54H62C64.2091 54 66 52.2091 66 50V6C66 3.79086 64.2091 2 62 2ZM6 0C2.68629 0 0 2.68629 0 6V50C0 53.3137 2.68629 56 6 56H62C65.3137 56 68 53.3137 68 50V6C68 2.68629 65.3137 0 62 0H6Z" fill="#D1D4DB"/>
<path d="M38 34.9282C39.8375 33.8673 41.1783 32.12 41.7274 30.0706C42.2766 28.0211 41.9891 25.8375 40.9282 24C39.8673 22.1625 38.12 20.8217 36.0706 20.2726C34.0211 19.7234 31.8375 20.0109 30 21.0718L31.52 23.7045C32.6592 23.0468 34.0131 22.8685 35.2837 23.209C36.5544 23.5495 37.6377 24.3808 38.2955 25.52C38.9532 26.6592 39.1315 28.0131 38.791 29.2837C38.4505 30.5544 37.6192 31.6377 36.48 32.2955L38 34.9282Z" fill="#D1D4DB"/>
</svg>

<svg width="68" height="56" viewBox="0 0 68 56" fill="none" xmlns="http://www.w3.org/2000/svg">
  <path fill-rule="evenodd" clip-rule="evenodd" d="M62 2H6a4 4 0 0 0-4 4v44a4 4 0 0 0 4 4h56a4 4 0 0 0 4-4V6a4 4 0 0 0-4-4ZM6 0a6 6 0 0 0-6 6v44a6 6 0 0 0 6 6h56a6 6 0 0 0 6-6V6a6 6 0 0 0-6-6H6Z" fill="#D1D4DB"/>
  <path d="M38.25 35.36c.41.72 1.34.97 1.99.46a10 10 0 0 0-9.89-17.13c-.77.3-1.01 1.23-.6 1.95.41.72 1.33.94 2.12.7a7 7 0 0 1 6.84 11.84c-.61.56-.87 1.46-.46 2.18Z" fill="#D1D4DB"/>
</svg>
